svg/search-icon.svg

<svg xmlns="http://www.w3.org/2000/svg" preserveAspectRatio="xMidYMid" width="15" height="15" viewBox="0 0 15 15"><defs/><path d="M2.95 1.226A6.96 6.96 0 0 1 6.872 0a6.955 6.955 0 0 1 3.887 1.196 6.858 6.858 0 0 1 2.815 4.024c.522 2.022.053 4.282-1.256 5.915 1.191 1.179 1.217 1.213 2.405 2.396a.856.856 0 0 1 .218.934c-.179.544-.976.709-1.371.3-1.202-1.197-1.246-1.243-2.444-2.442-1.128.911-2.571 1.401-4.015 1.462a6.983 6.983 0 0 1-4.082-1.164 6.949 6.949 0 0 1-2.438-2.87A6.893 6.893 0 0 1 2.95 1.226zm3.555.475c-1.902.101-3.658 1.373-4.41 3.108-.456 1.016-.54 2.18-.303 3.263.338 1.481 1.371 2.775 2.724 3.463.933.489 2.02.648 3.06.516 1.655-.207 3.171-1.278 3.927-2.759.5-.918.67-1.995.551-3.029-.157-1.451-.993-2.8-2.186-3.634a5.155 5.155 0 0 0-3.363-.928z" class="cls-1"/></svg>

<svg xmlns="http://www.w3.org/2000/svg" xmlns:xlink="http://www.w3.org/1999/xlink" preserveAspectRatio="xMidYMid" width="15" height="15" viewBox="0 0 15 15">
  <defs>
    <style>
      .cls-1 {
        fill: #bc2031;
        fill-rule: evenodd;
      }
    </style>
  </defs>
  <path d="M2.950,1.226 C4.092,0.430 5.482,0.007 6.872,-0.000 C8.247,0.006 9.624,0.416 10.759,1.196 C12.149,2.131 13.178,3.591 13.574,5.220 C14.096,7.242 13.627,9.502 12.318,11.135 C13.509,12.314 13.535,12.348 14.723,13.531 C14.977,13.763 15.069,14.145 14.941,14.465 C14.762,15.009 13.965,15.174 13.570,14.765 C12.368,13.568 12.324,13.522 11.126,12.323 C9.998,13.234 8.555,13.724 7.111,13.785 C5.673,13.834 4.225,13.419 3.029,12.621 C1.971,11.914 1.120,10.906 0.591,9.751 C0.018,8.489 -0.171,7.053 0.079,5.689 C0.388,3.899 1.447,2.251 2.950,1.226 ZM6.505,1.701 C4.603,1.802 2.847,3.074 2.095,4.809 C1.639,5.825 1.555,6.989 1.792,8.072 C2.130,9.553 3.163,10.847 4.516,11.535 C5.449,12.024 6.536,12.183 7.576,12.051 C9.231,11.844 10.747,10.773 11.503,9.292 C12.003,8.374 12.173,7.297 12.054,6.263 C11.897,4.812 11.061,3.463 9.868,2.629 C8.902,1.935 7.689,1.614 6.505,1.701 Z" class="cls-1"/>
</svg>
